X:1
T:Hosanna in Excelsis, 77.87 D
T:Sydney Hugo Nicholson, 1916
T:Hosanna in Excelsis, 77.87 D
T:Public Domain
C:Sydney Hugo Nicholson, 1916
Z:Public Domain
%%score ( 1 2 ) ( 3 4 )
L:1/8
M:none
K:C
V:1 treble 
V:2 treble 
V:3 bass 
V:4 bass 
V:1
 G2 | [Ec]2 [DG]2 [CE]2 [CF]2 | (G3 A) [GB]2 G2 | [FA]2 [GA]2 [Fd]2 [Ac]2 | (A2 z c) [Gd]2 G2 | %5
 [FA]2 (GF) [CE]2 [DG]2 | [Gc]2 (BA) [EG]2 [GB]2 | (^F2 ^G)[Ac] [GB]2 [Gc]2 | (G2 ^F2) G2 [CG]2 | %9
 C2 z B [Gc]2 [Ad]2 | c2 B2 [EA]2 [DG]2 | [Cc]3 [CG] [CG]2 [CF]2 | [CE]4 [B,D]2 [B,D]2 | %13
 [CE]2 [FA]2 [EG]2 [CG]2 | [CA]2 [Fd]2 [DB]2 G2 | [Ge]3 [Fd] [Ec]2 [Ad]2 | (G2 F2) [Ec]2 |] %17
V:2
 G2 | x8 | D4 G2 x2 | x8 | B3 (G2 x G2) | x2 D2 x4 | x2 ^F2 x4 | d3 x5 | A4 G2 x2 | A3 F2 x3 | %10
 G4 x4 | x8 | x8 | x8 | x6 G2 | x8 | B4 x2 |] %17
V:3
 G,2 | [C,G,]2 [B,,G,]2 [C,G,]2 [A,C]2 | (B,3 C) [G,D]2 (CB,) | [F,A,]2 [E,^C]2 [D,D]2 [F,D]2 | %4
 (D3 C) [G,,B,]2 [E,C]2 | [F,C]2 [G,B,]2 [A,C]2 ([G,B,][F,A,]) | [E,G,]2 [^D,B,]2 [E,B,]2 [E,G,]2 | %7
 (D,2 E,)[^F,D] [G,D]2 [C,E]2 | (D3 C) [G,B,]2 (CB,) | [F,A,]2 [D,D]2 [E,C]2 [F,A,]2 | %10
 [G,D]4 [G,C]2 [F,B,]2 | [E,C]3 [E,B,] [F,B,]2 [F,,A,]2 | (G,2 ^F,2) [G,,G,]2 (G,=F,) | %13
 [E,G,]2 [D,B,]2 [E,C]2 (CB,) | [F,A,]2 [D,A,]2 [G,B,]2 ([A,C][B,D]) | C3 [G,B,] [A,C]2 [G,B,]2 | %16
 [G,D]4 [C,C]2 |] %17
V:4
 G,2 | x8 | G,4 E,2 x2 | x8 | G,4 x4 | x8 | x8 | A,3 x5 | D,4 E,2 x2 | x8 | x8 | x8 | G,,4 G,2 x2 | %13
 x6 E,2 | x8 | C3 x5 | x6 |] %17

